src/assets/stacks/bard.svg

<?xml version="1.0" encoding="UTF-8"?>
<svg width="256px" height="258px" viewBox="0 0 256 258" version="1.1" xmlns="http://www.w3.org/2000/svg" xmlns:xlink="http://www.w3.org/1999/xlink" preserveAspectRatio="xMidYMid">
    <title>Bard</title>
    <defs>
        <radialGradient cx="78.3021802%" cy="55.5203129%" fx="78.3021802%" fy="55.5203129%" r="78.1147983%" gradientTransform="translate(0.783022,0.555203),scale(0.999475,1.000000),rotate(78.858000),translate(-0.783022,-0.555203)" id="radialGradient-1">
            <stop stop-color="#1BA1E3" offset="0%"></stop>
            <stop stop-color="#1BA1E3" offset="0.01%"></stop>
            <stop stop-color="#5489D6" offset="30.0221%"></stop>
            <stop stop-color="#9B72CB" offset="54.5524%"></stop>
            <stop stop-color="#D96570" offset="82.5372%"></stop>
            <stop stop-color="#F49C46" offset="100%"></stop>
        </radialGradient>
        <radialGradient cx="-3.4086494%" cy="-54.2187761%" fx="-3.4086494%" fy="-54.2187761%" r="169.363094%" gradientTransform="translate(-0.034086,-0.542188),scale(0.999462,1.000000),rotate(78.858000),translate(0.034086,0.542188)" id="radialGradient-2">
            <stop stop-color="#1BA1E3" offset="0%"></stop>
            <stop stop-color="#1BA1E3" offset="0.01%"></stop>
            <stop stop-color="#5489D6" offset="30.0221%"></stop>
            <stop stop-color="#9B72CB" offset="54.5524%"></stop>
            <stop stop-color="#D96570" offset="82.5372%"></stop>
            <stop stop-color="#F49C46" offset="100%"></stop>
        </radialGradient>
    </defs>
    <g>
        <path d="M122.062138,172.769563 L111.792605,196.29076 C107.844875,205.33202 95.3333209,205.33202 91.3858292,196.29076 L81.116058,172.769563 C71.9768317,151.837202 55.526844,135.175312 35.0075623,126.067072 L6.74034181,113.519526 C-2.24678895,109.530321 -2.24677226,96.4562364 6.74034181,92.4670316 L34.1246742,80.3113505 C55.1716865,70.9688024 71.9167648,53.6893195 80.8998648,32.0430683 L91.3026413,6.97665083 C95.162893,-2.32553558 108.015303,-2.32555703 111.875793,6.976627 L122.278569,32.0433067 C131.261669,53.6893195 148.006509,70.9688024 169.053521,80.3113505 L196.438068,92.4670316 C205.42522,96.4562364 205.42522,109.530321 196.438068,113.519526 L168.170633,126.067072 C147.65159,135.175312 131.201602,151.837202 122.062138,172.769563 Z" fill="url(#radialGradient-1)"></path>
        <path d="M217.500574,246.936928 L214.612119,253.556205 C212.498336,258.402078 205.788482,258.402078 203.674699,253.556205 L200.786483,246.936928 C195.63813,235.134498 186.365183,225.737603 174.794201,220.596878 L165.895957,216.643427 C161.084646,214.505808 161.084646,207.51159 165.895957,205.373971 L174.296742,201.641481 C186.165198,196.368465 195.604282,186.623803 200.664204,174.420449 L203.630126,167.267483 C205.69719,162.282168 212.589628,162.282168 214.656692,167.267483 L217.622615,174.420449 C222.682536,186.623803 232.121858,196.368465 243.990792,201.641481 L252.390623,205.373971 C257.203126,207.51159 257.203126,214.505808 252.390623,216.643427 L243.492618,220.596878 C231.921874,225.737603 222.648689,235.134498 217.500574,246.936928 Z" fill="url(#radialGradient-2)"></path>
    </g>
</svg>

<svg xmlns="http://www.w3.org/2000/svg" width="256" height="258" preserveAspectRatio="xMidYMid"><defs><radialGradient id="a" cx="78.302%" cy="55.52%" r="78.115%" fx="78.302%" fy="55.52%" gradientTransform="scale(.99947 1) rotate(78.858 .783 .555)"><stop offset="0%" stop-color="#1BA1E3"/><stop offset=".01%" stop-color="#1BA1E3"/><stop offset="30.022%" stop-color="#5489D6"/><stop offset="54.552%" stop-color="#9B72CB"/><stop offset="82.537%" stop-color="#D96570"/><stop offset="100%" stop-color="#F49C46"/></radialGradient><radialGradient id="b" cx="-3.409%" cy="-54.219%" r="169.363%" fx="-3.409%" fy="-54.219%" gradientTransform="scale(.99946 1) rotate(78.858 -.034 -.542)"><stop offset="0%" stop-color="#1BA1E3"/><stop offset=".01%" stop-color="#1BA1E3"/><stop offset="30.022%" stop-color="#5489D6"/><stop offset="54.552%" stop-color="#9B72CB"/><stop offset="82.537%" stop-color="#D96570"/><stop offset="100%" stop-color="#F49C46"/></radialGradient></defs><path fill="url(#a)" d="m122.062 172.77-10.27 23.52c-3.947 9.042-16.459 9.042-20.406 0l-10.27-23.52c-9.14-20.933-25.59-37.595-46.108-46.703L6.74 113.52c-8.987-3.99-8.987-17.064 0-21.053l27.385-12.156C55.172 70.97 71.917 53.69 80.9 32.043L91.303 6.977c3.86-9.303 16.712-9.303 20.573 0l10.403 25.066c8.983 21.646 25.728 38.926 46.775 48.268l27.384 12.156c8.987 3.99 8.987 17.063 0 21.053l-28.267 12.547c-20.52 9.108-36.97 25.77-46.109 46.703Z"/><path fill="url(#b)" d="m217.5 246.937-2.888 6.62c-2.114 4.845-8.824 4.845-10.937 0l-2.889-6.62c-5.148-11.803-14.42-21.2-25.992-26.34l-8.898-3.954c-4.811-2.137-4.811-9.131 0-11.269l8.4-3.733c11.87-5.273 21.308-15.017 26.368-27.22l2.966-7.154c2.067-4.985 8.96-4.985 11.027 0l2.966 7.153c5.06 12.204 14.499 21.948 26.368 27.221l8.4 3.733c4.812 2.138 4.812 9.132 0 11.27l-8.898 3.953c-11.571 5.14-20.844 14.537-25.992 26.34Z"/></svg>
